docs/public/static/branding/about/illustrations/community-light.svg

<svg width="92" height="84" viewBox="0 0 92 84" fill="none" xmlns="http://www.w3.org/2000/svg">
<path d="M55.4664 2H36.9849C17.6633 2 2 17.6632 2 36.9849C2 56.3065 16.3705 71.9697 36.9849 71.9697H41.0726C43.2311 75.3198 49.9986 82 64.8473 82C59.013 77.2374 58.0903 73.785 58.2206 71.8627C77.8087 71.8627 90.4512 55.3803 90.4512 36.986C90.4512 17.6644 74.788 2.00116 55.4664 2.00116V2Z" fill="#E7F2FE" fill-opacity="0.5"/>
<path d="M14.6836 47.0156C18.6377 56.6814 28.1354 63.4917 39.2251 63.4917H55.7006C69.0829 63.4917 78.0757 53.5751 79.527 40.6898" stroke="#8DCEFF" stroke-width="2.79265" stroke-linecap="round" stroke-linejoin="round"/>
<path d="M18.9307 19.9351C23.7928 14.1531 31.0793 10.478 39.2251 10.478H53.2279C59.7888 10.478 65.7921 12.8616 70.4201 16.81" stroke="#8DCEFF" stroke-width="2.79265" stroke-linecap="round" stroke-linejoin="round"/>
<path fill-rule="evenodd" clip-rule="evenodd" d="M61.6266 50.6707C61.6545 50.6468 61.682 50.6215 61.7089 50.5947C62.354 49.9789 62.4176 49.4258 62.2386 48.6535C62.2386 48.6535 64.7857 49.1154 64.9405 47.2327C64.9422 47.2116 64.9419 47.1899 64.9395 47.1675C64.9503 46.8708 64.8854 46.5649 64.7659 46.2925C64.5344 45.7631 62.4469 43.3056 62.2374 43.1019C58.9665 39.703 54.6612 37.0023 54.6612 37.0023C55.8561 36.9486 56.931 36.6392 58.1292 36.2944L58.1962 36.2751C59.66 35.8538 61.0447 34.9474 61.7289 33.586L48.9502 28.6639C48.9502 28.6639 48.3615 28.2881 47.4457 28.2416C44.8843 28.1091 42.6403 28.8406 40.3418 29.5899C38.8239 30.0847 37.2822 30.5873 35.6095 30.8538C33.7858 31.1444 33.0328 30.8992 31.3636 30.3556C31.2883 30.331 31.2112 30.3059 31.132 30.2802L11.3005 25.7512C10.222 25.5049 9.12012 26.0513 8.71481 27.0807C8.14704 28.5228 7.40967 30.6002 7.11984 32.3118C6.85731 33.8623 6.78108 35.9485 6.76382 37.4463C6.75106 38.5539 7.55533 39.4873 8.64635 39.6792L26.2949 42.7831C26.9097 43.0993 27.8775 43.7995 28.7803 44.4526C29.4323 44.9243 30.0504 45.3715 30.4769 45.6316C31.658 46.3514 32.8123 47.1155 33.9663 47.8794C35.799 49.0925 37.631 50.3052 39.5681 51.3391C41.3052 52.2665 43.2296 52.5757 45.1631 52.8864C46.7447 53.1405 48.3324 53.3956 49.8288 53.9909C51.1917 54.5327 52.1672 54.4959 52.7784 54.1711L52.7785 54.1713L52.7784 54.1711C52.9618 54.0737 53.1124 53.9503 53.2308 53.8089C53.8273 53.1985 53.9049 52.4515 53.9049 52.4515C53.9049 52.4515 55.0185 52.7912 55.6584 52.9704C55.7391 52.993 55.8234 53.0192 55.9109 53.0464C56.4989 53.2292 57.2314 53.4569 57.9734 52.9117C58.2044 52.7689 58.3934 52.5763 58.5235 52.3532C58.7419 52.0641 58.9583 51.6896 59.169 51.2087C60.4471 51.3915 61.1277 51.1146 61.6266 50.6707Z" fill="url(#paint0_linear_729_1485)"/>
<path d="M68.2136 43.2451C69.1863 41.9802 71.218 39.5727 70.9015 38.0088L84.0439 32.2419C85.0008 31.822 85.5615 30.8163 85.3724 29.7886C85.1463 28.5603 84.8012 26.9287 84.383 25.7375C83.9877 24.6118 83.2343 23.224 82.6012 22.1499C82.0114 21.1492 80.7533 20.8053 79.7069 21.3096L64.9799 28.408C62.2094 29.4168 60.0986 27.8331 57.1884 27.3584C54.2771 26.8836 51.1866 26.5846 48.4707 27.7307C48.117 27.8797 47.7761 28.0519 47.4456 28.2416C45.4803 29.3714 43.9199 31.1564 42.4247 32.8925C41.4693 34.0037 40.5117 35.115 39.5552 36.2262C39.4191 36.3845 39.2783 36.5543 39.2457 36.7603C39.1864 37.1292 39.4935 37.4503 39.7996 37.6621C40.8712 38.4033 42.2885 38.6209 43.5324 38.2334C44.6029 37.9006 45.4989 37.1676 46.3157 36.4007C47.1721 35.599 47.9762 34.7449 48.7244 33.8431C50.4244 34.774 52.1884 35.8399 53.9362 37.0023C57.2222 39.1887 61.737 43.0728 64.3876 45.6642C65.9248 45.4117 67.0628 44.7414 68.2136 43.2451Z" fill="url(#paint1_linear_729_1485)"/>
<path d="M48.5414 51.3716C48.4157 50.9306 48.076 50.6048 47.5302 50.4035C46.526 50.0323 45.7732 50.2336 45.0727 50.7258C45.4241 49.973 45.4672 49.1282 45.1402 48.5069C44.8074 47.8739 44.1383 47.5655 43.3052 47.6586C42.5733 47.7412 41.7995 48.1264 41.0443 48.6651C41.3061 48.0926 41.3608 47.512 41.2037 46.929C41.0815 46.4764 40.8116 46.118 40.4206 45.8946C39.8621 45.5746 39.0871 45.5373 38.1807 45.7864C37.6513 45.9318 36.8996 46.2611 36.1316 46.737C36.4842 46.0505 36.4888 45.3709 36.1281 44.7379C35.7685 44.1061 35.1798 43.7512 34.4269 43.714C33.0888 43.6453 31.3469 44.6227 30.3776 45.9842C29.9156 46.6323 29.7702 47.3409 29.968 47.9786C30.1588 48.5953 30.6533 49.0898 31.3236 49.3365C31.6762 49.4657 31.9799 49.5262 32.2626 49.5262C32.7315 49.5262 33.1423 49.3598 33.6194 49.0689C33.4332 49.3598 33.2784 49.6646 33.1702 49.9811C32.9084 50.7433 33.0422 51.5532 33.5274 52.1478C33.9952 52.7203 34.726 53.0309 35.5777 53.0309C35.7336 53.0309 35.893 53.0205 36.056 52.9995C36.4842 52.9437 36.9589 52.8133 37.5489 52.441C37.4395 52.8145 37.4476 53.1927 37.5814 53.5453C37.8619 54.283 38.6578 54.7985 39.7644 54.959C39.8877 54.9765 40.0087 54.9858 40.1274 54.9858C40.8558 54.9858 41.5098 54.6635 42.1102 54.1864C42.045 54.5506 42.109 54.8438 42.1846 55.0382C42.4627 55.7526 43.2715 56.2611 44.1977 56.303C44.2873 56.3065 44.3734 56.3088 44.4572 56.3088C45.395 56.3088 46.035 56.0295 47.0136 54.7728L47.0625 54.71C47.7711 53.8012 48.8416 52.4282 48.5414 51.3728V51.3716Z" fill="url(#paint2_linear_729_1485)"/>
<path d="M55.4664 2H36.9849C17.6633 2 2 17.6632 2 36.9849C2 56.3065 16.3705 71.9697 36.9849 71.9697H41.0726C43.2311 75.3198 49.9986 82 64.8473 82C59.013 77.2374 58.0903 73.785 58.2206 71.8627C77.8087 71.8627 90.4512 55.3803 90.4512 36.986C90.4512 17.6644 74.788 2.00116 55.4664 2.00116V2Z" stroke="#8DCEFF" stroke-width="2.79265" stroke-linecap="round" stroke-linejoin="round"/>
<defs>
<linearGradient id="paint0_linear_729_1485" x1="6.76367" y1="32.2442" x2="65.5088" y2="48.3633" gradientUnits="userSpaceOnUse">
<stop stop-color="#004C99"/>
<stop offset="1" stop-color="#0072E6"/>
</linearGradient>
<linearGradient id="paint1_linear_729_1485" x1="89.0955" y1="26.0271" x2="38.2489" y2="44.9567" gradientUnits="userSpaceOnUse">
<stop stop-color="#007FFF"/>
<stop offset="1" stop-color="#3399FF"/>
</linearGradient>
<linearGradient id="paint2_linear_729_1485" x1="49.9768" y1="46.505" x2="28.5758" y2="52.9371" gradientUnits="userSpaceOnUse">
<stop stop-color="#007FFF"/>
<stop offset="1" stop-color="#3399FF"/>
</linearGradient>
</defs>
</svg>

<svg xmlns="http://www.w3.org/2000/svg" width="92" height="84" fill="none"><path fill="#E7F2FE" fill-opacity=".5" d="M55.466 2H36.985C17.663 2 2 17.663 2 36.985S16.37 71.97 36.985 71.97h4.088C43.23 75.32 49.999 82 64.847 82c-5.834-4.763-6.757-8.215-6.626-10.137 19.588 0 32.23-16.483 32.23-34.877 0-19.322-15.663-34.985-34.985-34.985V2Z"/><path stroke="#C2E0FF" stroke-linecap="round" stroke-linejoin="round" stroke-opacity=".5" stroke-width="2.793" d="M14.684 47.016c3.954 9.665 13.451 16.476 24.541 16.476h16.476c13.382 0 22.375-9.917 23.826-22.802M18.93 19.935c4.863-5.782 12.15-9.457 20.295-9.457h14.003c6.56 0 12.564 2.384 17.192 6.332"/><path fill="url(#a)" fill-rule="evenodd" d="M61.627 50.67a1.49 1.49 0 0 0 .082-.075c.645-.616.709-1.17.53-1.941 0 0 2.547.461 2.702-1.421a.348.348 0 0 0-.002-.066 2.026 2.026 0 0 0-.173-.875c-.232-.529-2.32-2.986-2.529-3.19-3.27-3.399-7.576-6.1-7.576-6.1 1.195-.053 2.27-.363 3.468-.708l.067-.019c1.464-.421 2.849-1.328 3.533-2.689L48.95 28.664s-.589-.376-1.504-.422c-2.562-.133-4.806.599-7.104 1.348-1.518.495-3.06.997-4.733 1.264-1.823.29-2.576.045-4.245-.498l-.232-.076L11.3 25.751c-1.078-.246-2.18.3-2.585 1.33-.568 1.442-1.305 3.52-1.595 5.23-.263 1.551-.339 3.638-.356 5.135-.013 1.108.791 2.041 1.882 2.233l17.649 3.104c.615.316 1.582 1.017 2.485 1.67.652.471 1.27.918 1.697 1.179 1.181.72 2.335 1.483 3.49 2.247 1.832 1.214 3.664 2.426 5.601 3.46 1.737.928 3.662 1.237 5.595 1.547 1.582.255 3.17.51 4.666 1.105 1.363.542 2.338.505 2.95.18.183-.097.333-.22.452-.362.596-.61.674-1.357.674-1.357s1.114.34 1.753.518c.081.023.165.05.253.076.588.183 1.32.41 2.062-.134.231-.143.42-.336.55-.559.219-.289.435-.663.646-1.144 1.278.182 1.959-.094 2.458-.538Z" clip-rule="evenodd"/><path fill="url(#b)" d="M68.214 43.245c.972-1.265 3.004-3.672 2.688-5.236l13.142-5.767c.957-.42 1.517-1.426 1.328-2.453-.226-1.229-.57-2.86-.989-4.052-.395-1.125-1.149-2.513-1.782-3.587-.59-1-1.848-1.345-2.894-.84L64.98 28.408c-2.77 1.009-4.881-.575-7.792-1.05-2.91-.474-6.001-.773-8.717.373a9.357 9.357 0 0 0-1.025.51c-1.966 1.13-3.526 2.915-5.021 4.651l-2.87 3.334c-.136.159-.277.328-.31.534-.059.37.248.69.555.902a4.377 4.377 0 0 0 3.732.571c1.07-.332 1.967-1.065 2.784-1.832a27.941 27.941 0 0 0 2.408-2.558c1.7.931 3.464 1.997 5.212 3.16 3.286 2.186 7.801 6.07 10.452 8.661 1.537-.252 2.675-.923 3.826-2.419Z"/><path fill="url(#c)" d="M48.541 51.372c-.125-.441-.465-.767-1.01-.968-1.005-.372-1.758-.17-2.458.322.351-.753.394-1.598.067-2.22-.333-.632-1.002-.94-1.835-.847-.732.082-1.505.467-2.26 1.006a2.501 2.501 0 0 0 .159-1.736 1.657 1.657 0 0 0-.783-1.034c-.559-.32-1.334-.358-2.24-.109-.53.146-1.281.475-2.05.951.353-.687.358-1.366-.003-2-.36-.63-.948-.986-1.701-1.023-1.338-.069-3.08.909-4.05 2.27-.461.648-.607 1.357-.409 1.995.19.616.685 1.11 1.356 1.358.352.129.656.19.939.19.468 0 .88-.167 1.356-.458-.186.29-.34.596-.449.912-.262.762-.128 1.572.357 2.167.468.572 1.199.883 2.05.883.157 0 .316-.01.479-.032.428-.055.903-.186 1.493-.558-.11.373-.101.752.032 1.104.28.738 1.077 1.253 2.183 1.414.124.017.245.027.363.027.729 0 1.383-.322 1.983-.8-.065.365-.001.658.075.852.278.715 1.087 1.223 2.013 1.265.09.004.175.006.26.006.937 0 1.577-.28 2.556-1.536l.048-.063c.71-.909 1.78-2.282 1.48-3.337v-.001Z"/><path stroke="#8DCEFF" stroke-linecap="round" stroke-linejoin="round" stroke-width="2.793" d="M55.466 2H36.985C17.663 2 2 17.663 2 36.985S16.37 71.97 36.985 71.97h4.088C43.23 75.32 49.999 82 64.847 82c-5.834-4.763-6.757-8.215-6.626-10.137 19.588 0 32.23-16.483 32.23-34.877 0-19.322-15.663-34.985-34.985-34.985V2Z"/><defs><linearGradient id="a" x1="6.764" x2="65.509" y1="32.244" y2="48.363" gradientUnits="userSpaceOnUse"><stop stop-color="#004C99"/><stop offset="1" stop-color="#0072E6"/></linearGradient><linearGradient id="b" x1="89.096" x2="38.249" y1="26.027" y2="44.957" gradientUnits="userSpaceOnUse"><stop stop-color="#007FFF"/><stop offset="1" stop-color="#39F"/></linearGradient><linearGradient id="c" x1="49.977" x2="28.576" y1="46.505" y2="52.937" gradientUnits="userSpaceOnUse"><stop stop-color="#007FFF"/><stop offset="1" stop-color="#39F"/></linearGradient></defs></svg>
